X:129
T: WILLKOMMEN LIEBER MAI
N: F0249
O: Europa, Mitteleuropa, Deutschland
R: Jugend - Lied, Jahreszeiten, Fruehling
M: 6/8
L: 1/16
K: C
G,2 | C4C2D3ED2 | B,3A,B,2C4
G,2 | E4E2D2E2D2 | C2B,2A,2G,4
D2 | D4B,2G,4G2 | G4E2C4
G,2 | A,4A,2D2E2F2 | C4B,2C4

@@@ Tune index: 5560
